!!!CDT:
!!!PTL: Arie musicali da cantarsi nel clavecembalo chitarone o altro simile istromento a una e doi voci 
!!!PPP: Venice
!!!PPR: Alessandro Vincenzi
!!!PDT: 1635
!!!RISM: N 360
!!!rime:
!!!AGN: Madrigal
!!!SCT: Tsg19106g
!!!SCA: Tsg19106g
!!!voices:
!!!COM: Negri, Francesco
!!!OTL: Misera, non credea ch'a gli occhi miei
**kern	**fb	**kern	**text
*part2	*part2	*part1	*part1
*staff2	*staff2	*staff1	*staff1
*I"[Basso continuo]	*	*I"[Tenore]	*
*I'Bc	*	*I'T	*
*oclefF4	*	*oclefC4	*
*clefF4	*	*clefGv2	*
*k[b-]	*	*k[b-]	*
*F:	*	*F:	*
*omet(C)	*	*omet(C)	*
*M4/4	*	*M4/4	*
=1	=1	=1	=1
!!LO:TX:a:t=Aria Per Ottave. Parte Prima d'Incerto. Seconda Terza, & Quarta dell'Autore.
1G	.	4.d	Mi-
.	.	8d	-se-
.	.	4d	-ra,
.	.	8d	non
.	.	8d	cre-
=2	=2	=2	=2
2G	.	2d	-dea
2F	6	8r	.
.	.	8d	ch'a-
.	.	[4d	-gl'oc-
=3	=3	=3	=3
1E-X	7:6	4.d]	.
.	.	8e-X	-chi
.	.	8.GL	mie-
.	.	16AJ	.
.	.	16B-yL	.
.	.	16A	.
.	.	16A	.
.	.	16GJ	.
=4	=4	=4	=4
2D	#	2A	-i
4D	n	2r	.
4C	.	.	.
=5	=5	=5	=5
2BB-y	.	4r	.
.	.	8r	.
.	.	8f	Po-
4BB-y	.	8.f	-tes-
.	.	16e-X	-si in
4C	.	8.e-X	al-
.	.	16d	-cun
=6	=6	=6	=6
2D	.	4d	tem-
.	.	(2d	-p'es-
2E-X	76	.	.
.	.	8d)L	.
.	.	16e-X	.
.	.	16fJ	.
=7	=7	=7	=7
2G	.	2.B-y	.
4D	6	.	.
4E-X	6	8c	-ser
.	.	8c	no-
=8	=8	=8	=8
1F	3:4:3	1c	-io-
=9	=9	=9	=9
1BB-y	.	1B-y	-so:
=10	=10	=10	=10
2F	.	8r	.
.	.	8c	Hor
.	.	8c	cie-
.	.	8d	-c'a
2C	-	16e-X	far-
.	.	16e-i	-mi
.	.	16e-X	vo-
.	.	16e-i	-len-
.	.	[4f	-tier
=11	=11	=11	=11
1G	.	2.f]	.
.	.	4d	tor-
=12	=12	=12	=12
1A-X	.	2.d	-re-
.	.	(4c	-i
=13	=13	=13	=13
4G	.	2d)	.
4F	.	.	.
2E	6:5	8r	.
.	.	8c	Per
.	.	8B-y	non
.	.	8A	ve-
=14	=14	=14	=14
2F	.	4A	-der-
.	.	4A	-ti,
2C#X	4:3	8r	.
.	.	8A	e
.	.	8A	ri-
.	.	8A	-guar-
=15	=15	=15	=15
4D	.	(8B-y	-dar
.	.	8A)	non
4GG	.	(8GL	.
.	.	8F)J	.
2AA	.	2E	o-
=16	=16	=16	=16
4D	.	2D	-so,
4C	.	.	.
2BBnX	.	8r	.
.	.	8d	Per
.	.	8d	non
.	.	8d	ve-
=17	=17	=17	=17
(2C	-	4e-X	-der-
.	.	4A	-ti,
2C)	.	8r	.
.	.	8A	e
.	.	8A	ri-
.	.	8A	-guar-
=18	=18	=18	=18
1D	.	(8B-yL	-dar
.	.	8A)J	.
.	.	(8.B-yL	non
.	.	16A)J	.
.	.	16GL	o-
.	.	16A	.
.	.	16B-y	.
.	.	16AJ	.
.	.	16AL	.
.	.	16A	.
.	.	16A	.
.	.	16GJ	.
=19	=19	=19	=19
1GG	.	1G	-so.
=20||	=20||	=20||	=20||
!!LO:TX:a:t=Seconda Parte.
1G	.	4r	.
.	.	8r	.
.	.	8d	Ohi-
.	.	2e-X	-mè!
=21	=21	=21	=21
2G	5:6	8r	.
.	.	8B-y	de
.	.	8A	.
.	.	8G	gl'oc-
2F	.	8.c	-chi
.	.	16c	già
.	.	(4f	sì
=22	=22	=22	=22
2E-X	7:6	16g)	dol-
.	.	16c	-ci e
.	.	16dL	re-
.	.	32e-X	.
.	.	32dJ	.
.	.	16cL	.
.	.	32d	.
.	.	32c	.
.	.	32B-y	.
.	.	32A	.
.	.	16B-yJ	.
2E-i	.	32cL	.
.	.	32B-y	.
.	.	16A	.
.	.	32B-y	.
.	.	32A	.
.	.	32G	.
.	.	32FJ	.
.	.	32E-XL	.
.	.	32F	.
.	.	32G	.
.	.	32A	.
.	.	32B-y	.
.	.	32A	.
.	.	32A	.
.	.	32GJ	.
=23	=23	=23	=23
2D	.	2A	-i
4D	.	2r	.
4C	.	.	.
=24	=24	=24	=24
2BB-y	.	8r	.
.	.	16r	.
.	.	16B-y	O-
.	.	16.d	-v'è
.	.	32A	la
.	.	32B-yL	fiam-
.	.	32c	.
.	.	32d	.
.	.	32e-XJ	.
4BB-y	.	8f	.
.	.	16d	-ma?
.	.	16g	o-
4C	.	8.e-X	-v'è'l
.	.	16d	bel
=25	=25	=25	=25
2D	.	2d	lu-
2E-X	6	16cL	-m'a-
.	.	16d	.
.	.	16e-X	.
.	.	16dJ	.
.	.	16cL	.
.	.	16B-y	.
.	.	16A	.
.	.	16B-yJ	.
=26	=26	=26	=26
2G	.	16GL	.
.	.	16A	.
.	.	16B-y	.
.	.	16AJ	.
.	.	16GL	.
.	.	16F	.
.	.	32E-X	.
.	.	32F	.
.	.	32D	.
.	.	32E-XJ	.
4D	6	2F	-sco-
4E-X	5	.	.
=27	=27	=27	=27
1F	3:4:3	1F	-so?
=28	=28	=28	=28
1BB-y	.	8r	.
.	.	8d	Del-
.	.	8.B-y	-le
.	.	16c	fio-
.	.	8dL	-ri-
.	.	8cJ	.
.	.	16B-yL	.
.	.	16B-y	.
.	.	16B-yJ	.
.	.	16AJL	-te
=29	=29	=29	=29
2F	.	4A	guan-
.	.	8AL	-cie
.	.	16rJ	.
.	.	16AJL	il
2C	.	16GL	.
.	.	16A	.
.	.	16B-yJ	bel
.	.	16c	.
.	.	16dL	.
.	.	16e-X	.
.	.	16f	.
.	.	16dJ	.
=30	=30	=30	=30
1G	6	[2e-i	.
.	.	16e-]L	.
.	.	16f	.
.	.	16e-X	.
.	.	16dJ	.
.	.	16e-XL	.
.	.	16f	.
.	.	16g	.
.	.	16e-XJ	.
=31	=31	=31	=31
(2A-X	.	8fL	.
.	.	16e-X	.
.	.	16e-iJ	.
.	.	32e-iL	.
.	.	32e-i	.
.	.	32e-i	.
.	.	32d	.
.	.	8cJ	.
2A-X)	7:6	16e-XL	ver-
.	.	16c	.
.	.	16f	.
.	.	16e-iJ	.
.	.	16cL	.
.	.	16d	.
.	.	32e-X	.
.	.	32e-i	.
.	.	(32e-i	.
.	.	32d)J	.
=32	=32	=32	=32
4G	.	4d	-mi-
4F	.	4d	-glio
2E	6	8r	.
.	.	8enXi	O-
.	.	8d	-v'è
.	.	8c	spa-
=33	=33	=33	=33
2F	.	16cL	-ri-
.	.	16d	.
.	.	16e	.
.	.	16fJ	.
.	.	16gL	.
.	.	16aJ	.
.	.	8fJL	-to?
2C#X	6:5	8r	.
.	.	8e	o-
.	.	8.e	-v'è'l
.	.	16f	se-
=34	=34	=34	=34
4D	.	8.dL	-ren
.	.	16eJ	.
4GG	.	16fL	.
.	.	16g	.
.	.	16a	.
.	.	16b-XJ	.
2AA	4:#3	16eL	del
.	.	16f	.
.	.	32e	.
.	.	32d	.
.	.	32g	.
.	.	32fJ	.
.	.	4e	ci-
=35	=35	=35	=35
4D	#	2d	-glio,
4C	.	.	.
2BBnX	6	8r	.
.	.	8d	o-
.	.	8d	-v'è
.	.	8d	spa-
=36	=36	=36	=36
2C	-	16e-XL	-ri-
.	.	16f	.
.	.	16g	.
.	.	16aJ	.
.	.	8b-y	.
.	.	8A	-to?
2C	-	8r	.
.	.	8A	o-
.	.	8.A	-v'è'l
.	.	16B-y	se-
=37	=37	=37	=37
(2D	#	16FL	-ren
.	.	32G	.
.	.	32A	.
.	.	32B-y	.
.	.	32c	.
.	.	32d	.
.	.	32enXiJ	.
.	.	32f	.
.	.	16AL	del
.	.	32B-y	.
.	.	32A	.
.	.	32G	.
.	.	32c	.
.	.	32B-yJ	.
2D)	.	2A	ci-
=38	=38	=38	=38
1GGl	.	1Gl	-glio?
==	==	==	==
*-	*-	*-	*-
!!!system-decoration: [*]
!!!RDF**kern: i = editorial accidental
!!!RDF**kern: l = terminal long
!!!ENC: Emiliano Ricciardi
!!!END:
!!!EED: Ricciardi, Emiliano
!!!EEV: 2020/02/23
!!!YEC: Copyright 2018 Emiliano Ricciardi, All Rights Reserved
!!!ONB: Translated from MusicXML on 2020/02/23
!!@@BEGIN:	VERSEDATA
!!@CATALOGNUM:	Tsg19106
!!@LAST_MODIFIED: 2020/07/12
!!@TITLE:		Misera, non credea ch'a gli occhi miei
!!@CANTO:		XIX
!!@OTTAVA:	106
!!@MANUSRC:	G-Al, G-Au, G-Br<sub>2</sub>, G-Es<sub>1</sub>, G-Es<sub>2</sub>, G-Es<sub>3</sub>, G-F, G-Fr, G-Fr<sub>1</sub>, G-Fr<sub>2</sub>, G-Mc<sub>1</sub>, G-Mr, G-Mt, G-N
!!@PRINTSRC:	G-1580CM, G-1581B, G-1581CV, G-1581R, G-1581MR, G-1581P, G-1581V, G-1581V<sub>bis</sub>, G-1582C, G-1582M, G-1582MC, G-1582P, G-1582SC, G-1582SC<sub>bis</sub>, G-1583S, G-1584O, G-1584S, G-1585C, G-1585S, G-1588S, G-1589S, G-1590B, G-1590S, G-1592S, G-1593S, G-1594C, G-1595C, G-1597C, G-1598C, G-1599C, G-1600C, G-1600S, G-1601C, G-1601R, G-1602C, G-1604C, G-1604Cl, G-1604F, G-1604P, G-1606B, G-1606B<sub>bis</sub>, G-1606L, G-1607ZR, G-1608DP, G-1609GC, G-1610M, G-1611S, G-1611V, G-1612P, G-1613M, G-1613P, G-1613V, G-1615P, G-1616M, G-1617P, G-1619B, G-1619V, G-1620M, G-1620S, G-1621R, G-1624I, G-1624MT, G-1625C, G-1625S, G-1625SS, G-1626C, G-1626Co, G-1627M, G-1628T, G-1628Tu, G-1630L, G-1630T, G-1632FT, G-1639CF, G-1642M, G-1643I, G-1644P, G-1644S
!!@@BEGIN:	VERSES
!!@ABOUTIT:
!!@ABOUTEN:
!!@EDITOR:	Angelo Solerti
!!@EDITION_TITLE: Gerusalemme liberata. Poema eroico di Torquato Tasso. Edizione critica sui manoscritti e le prime stampe.
!!@EDITION_LOC:	Florence
!!@EDITION_PUB:	G. Barbera
!!@EDITION_DATE:  1895
!!@EDITION_VOL:
!!@EDITION_PAGE:
!!@TRANSLATOR:	Emiliano Ricciardi and Amyrose McCue Gill
!!@VERSE:
!!	Misera, non credea ch’a gli occhi miei
!!	Potessi in alcun tempo esser noioso:
!!	Or cieca farmi volentier torrei
!!	Per non vederti, e riguardar non oso.
!!	Oimè! de’ lumi già sì dolci e rei
!!	Ov’è la fiamma? ov’è il bel raggio ascoso?
!!	Delle fiorite guancie il bel vermiglio
!!	Ov’è fuggito? ov’è il seren del ciglio?
!!@TVERSE:
!!	Miserable woman, I did not believe that before my eyes
!!	You could at any time be dreary:
!!	Now blind I would willingly make myself
!!	To not see you, and to look I do not dare.
!!	Dear me! Of eyes once so sweet and proud
!!	Where is the flame? Where is the beautiful ray hidden?
!!	The beautiful blush of the blossoming cheeks,
!!	Where has [it] fled? Where is the serenty of your brow?
!!@@END:		VERSES
!!@OTHER_CRIT_ED:  Torquato Tasso, <i>Gerusalemme liberata</i>, ed. Lanfranco Caretti, 2 vols. (Bari: Laterza, 1967).
!!@ATTRIBUTION_ABOUT:
!!@DATING:	mid-1560s through 1570s
!!@DEDICATEE:	Duke Alfonso II d'Este
!!@COMMENTARY:
!!@@END:		VERSEDATA
!!@@BEGIN: SETTING
!!@CATALOGNUM:	Tsg19106g
!!@CANTO:		XIX
!!@OTTAVA:	106
!!@TITLE:	Misera, non credea ch'a gli occhi miei
!!@COMPOSER:	Negri, Francesco
!!@PARTS:		1-2 (verses 1-4; 5-8) of 4
!!@PRINCEPSTITLE:	Arie musicali da cantarsi nel clavecembalo chitarone o altro simile istromento a una e doi voci 
!!@PRINCEPSLOC:	Venice
!!@NORMLOC:	Venice
!!@NORMPUB:	Alessandro Vincenzi
!!@NORMPUBSHORT:	A. Vincenzi
!!@PRINCEPSPUB:	Alessandro Vincenti
!!@PRINCEPSYEAR:	1635
!!@PRINCEPSRISM:	N 360
!!@OVOICES:	1+bc
!!@EXTANTVOICES:	1+bc
!!@OMENSURATION:	C
!!@OCLEFS:	C4,F4
!!@OTIME:		
!!@OKEYSIG:	b-
!!@FINAL:		(G)G
!!@TIMPEDITOR:	Ricciardi, Emiliano
!!@REPRINTS:	
!!@@END: SETTING
